X:1
T:James Gibb editions
T:Ye of the Father loved - Barnby
%%score [ ( 1 2 ) ( 3 4 ) ]
L:1/8
Q:1/4=90
M:4/4
K:C
V:1 treble nm="Midi_74"
V:2 treble 
V:3 bass nm="Midi_74"
V:4 bass 
V:1
"^Mansfield (12 12. 88)""^Thomas Hornblower Gill\n(1819-1906)""^Ye of the Father loved""^Joseph Barnby\n(1838-96)" G2 | %1
 c2 B2 d2 c2 | e2 d2 c2 A2 | G4 G4 | G6 || G2 | c2 B2 d2 c2 | e2 d2 B2 G2 | B4 A4 | G6 || %10
[M:4/4] G2 | A2 A2 B2 E2 | c2 c2 d2 || G2 | e2 dc f2 c2 | e4 d4 | c6 || c4 c4 |] %18
V:2
 E2 | C2 D2 G2 G2 | G2 G2 G2 F2 | D4 (E2 F2) | E6 || E2 | G2 G2 G2 G2 | E2 A2 D2 G2 | G4 ^F4 | %9
 G6 ||[M:4/4] D2 | E2 D2 D2 E2 | E2 F2 F2 || G2 | G2 E2 F2 A2 | G4 F4 | E6 || F4 E4 |] %18
V:3
 G,2 | G,2 G,2 B,2 C2 | C2 B,2 C2 C2 | C4 B,4 | C6 || C2 | C2 D2 B,2 C2 | C2 A,2 B,2 D2 | D4 C4 | %9
 B,6 ||[M:4/4] B,2 | C2 A,2 A,2 ^G,2 | A,2 C2 C2 || B,2 | C2 C2 C2 C2 | (C2 A,2) B,4 | C6 || %17
 A,4 G,4 |] %18
V:4
 C,2 | E,2 D,2 F,2 E,2 | G,2 F,2 E,2 F,2 | G,4 G,,4 | C,6 || C,2 | E,2 D,2 F,2 E,2 | %7
 G,2 ^F,2 G,2 B,,2 | D,4 D,4 | G,6 ||[M:4/4] G,2 | G,2 F,2 E,2 E,2 | A,2 A,2 G,2 || G,2 | %14
 C2 _B,2 A,2 F,2 | G,4 G,,4 | C,6 || F,4 C,4 |] %18

